X: 31660
T: Parnell's March
R: jig
M: 6/8
K: Gmajor
dc|:B3 BAG|(d3 d2)c|B3 BAG|(d3 d2)c|B2B GBd|edc BAG|A3 dzd|A3 dzc|
B2A B2c|d3 BAG|c2B c2e|g3 gfe|d2B G2B|c2AF2G|ABA G2F|1 G2B d2c:|2 G2z g2f||
e3 c3|c2e gfe|d3 ded|(B3 B2)c|d2d GBd|edc BAG|A3 dzd|A3 dzc|
B2A B2c|d3 BAG|c2B c2e|g3 gfe|d2B G2B|c2AF2G|A3 ABA|1 G2z g2f:|2 G2z d2c||

